X: 10101
T: SHETLAND'S YOUNG HERITAGE
C: Bob McQuillen 31 Aug 93
B: Bob's Note Book 10 #101
%R: reel
Z: 2020 John Chambers <jc:trillian.mit.edu>
M: C
L: 1/8
K: D
AG \
| F2AF D2FA | dfec dAFA | B2GF EFGA | Bded cBAG |\
| FGAF D2FA | dfec dAFA | Bdgf edcB | A2d2 d2 :|
|: cd \
| e2cB A^GAB | ABcd e2ef | gaba gfed | edcB AGFE |\
| FDFA d2AG | FDFA d2fa | gfed ceag | f2d2 d2 :|
%%begintext align
%% This summer we
%% were truly blessed when that wonderful group of
%% Tom Anderson's former students, all young
%% fiddle players from Shetland, came through on
%% tour. They called themselves Shetland's Young
%% Heritage, and the music they played was glorious.
%% I just hope I can hear them again some day!
%%endtext

%%sep 1 1 500

%%sep 1 1 500

